X:27
T: DER MAI IST AUF DEM WEGE
N: B0513
O: Europa, Mitteleuropa, Deutschland
R: Wander - Lied
M: 6/8
L: 1/8
K: Eb
B | B2EGAB | c3Bz
B | e2BGFE | B4z
B | c2Bc2d | f3e2
B | G2BF2B | E4z

@@@ Tune index: 2245
